!!!OTL: Ruhmlied auf Sachsens Bergbau
!!!ARE: Europa, Mitteleuropa, Deutschland
!!!SCT: A0454
!!!YEM: Copyright 1995, estate of Helmut Schaffrath.
**kern
*ICvox
*Ivox
!! Mixed meters:  4/1; 3/1
*M3/1
*k[]
*C:
{1r
1c
1g
1a
=1
1b
1g
1a
1b
=2
0cc
1r}
=3
{1cc
=4
*M4/1
1ee
1ff
1gg
1dd
=5
1.ff
2ee
0dd
=6
*M3/1
0r}
{1dd
=7
0dd
1dd
=8
0cc
1b
=9
1.cc
2b
1a
=10
0.g
=11
0r}
{1g
=12
0cc
1cc
=13
0g
1g
=14
0e
1d
=15
0.c
=16
0r}
{1c
=17
0g
1g
=18
0a
1b
=19
0cc
1cc
=20
0cc}
{1cc
=21
0dd
1cc
=22
0b
1a
=23
0g
1a
=24
0.e
=25
0r}
{1e
=26
0g
1g
=27
0a
1a
=28
0f
1f
=29
0.d
=30
0r}
{1d
=31
0g
1a
=32
0g
1f
=33
0e
1d
=34
0f
1d
=35
0.c}
=36
{0g
1f
=37
1e
0d
=38
0.c}
==
!!!AGN: Romanze, Ballade, Lied
!! Rhaw, Bicinia Tom. I. 1545 No. 79.
!!!ONB: ESAC (Essen Associative Code) Database: ALTDEU
!!!AMT: irregular
!!!AIN: vox
!!!EED: Helmut Schaffrath
!!!EEV: 1.0
*-
